**kern	**dynam
*clefG2	*
*k[b-e-a-d-]	*
*A-:	*
*M2/2	*
*met(c|)	*
4c'	p
=1	=1
4f'	.
4a-'	.
4cc'	.
4ff'	.
=2	=2
[4aa-^	.
[8FL [8A- [8c 8aa-]	.
24FL_ 24A-_ 24c_ 24gg	.
24F_ 24A-_ 24c_ 24ff	.
24FJJ] 24A-] 24c] 24een	.
4F' 4A- 4c 4ff	.
4F 4A- 4c	.
=3	=3
4En' 4G 4B- 4c 4g	.
4cc'	.
4een'	.
4gg'	.
=4	=4
[4bb-^	.
[8EnL [8G [8B- [8c 8bb-]	.
24EL_ 24G_ 24B-_ 24c_ 24aa-	.
24E_ 24G_ 24B-_ 24c_ 24gg	.
24EJJ] 24G] 24B-] 24c] 24ff	.
4En' 4G 4B- 4c 4gg	.
4En 4G 4B- 4c	.
=5	=5
4cc [4aa-	sf
[8FL [8A- [8c 8aa-]	.
24FL_ 24A-_ 24c_ 24gg	.
24F_ 24A-_ 24c_ 24ff	.
24FJJ] 24A-] 24c] 24een	.
4F' 4A- 4c 4ff	.
4F 4A- 4c	.
=6	=6
4cc [4bb-	sf
[8GL [8B- [8en 8bb-]	.
24GL_ 24B-_ 24e_ 24aa-	.
24G_ 24B-_ 24e_ 24gg	.
24GJJ] 24B-] 24e] 24ff	.
4G' 4B- 4en 4gg	.
4G 4B- 4en	.
=7	=7
[4cc [4ff [4aa- [4ccc	ff
4A- 4c 4f 4cc] 4ff] 4aa-] 4ccc]	.
8bb-L	.
8aa-	.
[8B- [8d- [8g 8gg	.
8B-J] 8d-] 8g] 8ff	.
=8	=8
4een 4ff 4gg	p
4c 4g 4een	.
4r	.
4GG'	.
=9	=9
4C'	.
4E-'	.
4G'	.
4c'	.
=10	=10
4.e-^	.
24dnLL	.
24c	.
24BnJJ	.
4c'	.
4c'	.
=11	=11
[4c [4f [4a-	.
8cL_ 8f_ 8a-_	.
24cL_ 24f_ 24a-_ 24ee-	.
24c_ 24f_ 24a-_ 24dd-	.
24cJJ_ 24f_ 24a-_ 24cc	.
4c'_ 4f_ 4a-_ 4dd-	.
4c'] 4f] 4a-_ 4dd-	.
=12	=12
[4.B- [4.f 4.a-] [4.dd-	.
24B-LL_ 24f_ 24b- 24dd-_	.
24B-_ 24f_ 24a- 24dd-_	.
24B-JJ_ 24f_ 24g 24dd-_	.
4B-'_ 4f_ 4a- 4dd-_	.
4B-'] 4f] 4a- 4dd-_	.
=13	=13
[4.B- [4.e- [4.g 4.dd-]	.
24B-LL_ 24e-_ 24g_ 24ee-	.
24B-_ 24e-_ 24g_ 24dd-	.
24B-JJ_ 24e-_ 24g_ 24cc	.
4B-'_ 4e-_ 4g_ 4dd-	.
4B-'] 4e-] 4g] 4dd-	.
=14	=14
[4A- [4e- [4a-	.
8A-L_ 8e-_ 8a-_	.
24A-'L_ 24e-_ 24a-_ 24dd-	.
24A-_ 24e-_ 24a-_ 24cc	.
24A-JJ_ 24e-_ 24a-_ 24bn	.
4A-'_ 4e-_ 4a-_ 4cc	.
4A-'] 4e-] 4a-] 4cc	.
=15	=15
[4d- [4f 4cc	.
4d-] 4f_ [4b-	.
[4dn 4f_ 4b-]	.
4d] 4f] 4a-	.
=16	=16
4e-' 4g	.
4ee-	.
4dd-	.
4c 4e- [4cc	.
=17	=17
[4d- [4f 4cc]	.
4d-] 4f] [4b-	.
[4dn [4f 4b-]	.
4d] 4f] 4a-	.
=18	=18
4e-' 4g	.
4e- 4ee-	f
4d- 4dd-	.
4C 4E- [4c [4cc	.
=19	=19
[4D- [4F 4c] 4cc]	.
4D-] 4F] [4B- [4b-	.
[4Dn [4F 4B-] 4b-]	.
4D] 4F] 4A- 4a-	.
=20	=20
8E-L [8G [8g	.
8G'] 8e- 8g]	.
8E-	.
8e-J	.
8E-L	.
8e-	.
8E- [8ff-X	p
8e-J 8ff-]	.
=21	=21
8E-L [8ee-	.
8e- 8ee-]	.
8E- [8dd-	.
8e-J 8dd-]	.
8E-L [8b-	.
8e- 8b-]	.
8E- [8g	.
8e-J 8g]	.
=22	=22
4E- [4d- [4f-X	sf
[8E-L 8d-_ 8f-]	.
8E-J] 8d-] 8e-	.
8E-L [8c [8a-	.
8c'] 8e- 8a-]	.
8E- [8ff-X	.
8e-J 8ff-]	.
=23	=23
8E-L [8ee-	.
8e- 8ee-]	.
8E- [8dd-	.
8e-J 8dd-]	.
8E-L [8b-	.
8e- 8b-]	.
8E- [8g	.
8e-J 8g]	.
=24	=24
4E- [4d- [4f-X	sf
[8E-L 8d-_ 8f-]	.
8E-J] 8d-] 8e-	.
8E-L [8c [8a-	.
8c'] 8e- 8a-]	.
8E- [8ff-X	.
8e-J 8ff-]	.
=25	=25
8E-L [8ee-	.
8e- 8ee-]	.
8E- [8dd-	.
8e-J 8dd-]	.
8d-L [8b-	.
8e- 8b-]	.
8d- [8g	.
8e-J 8g]	.
=26	=26
8cL	.
8e- 8g	.
8c 8b-	.
8e-J 8a-	.
8GL	.
8e- 8an	.
8G 8cc	.
8e-J 8b-	.
=27	=27
8A-L	.
8e- 8bn	.
8A- 8dd-	.
8e-J 8cc	.
8FL	.
8dn 8ddn	.
8A- 8aa-	.
8dnJ 8ddn	.
=28	=28
8E-L [8ee-	mf
8e-' 8ee-]	.
8G	.
8e-J	.
8FL	.
8dn 8ddn	.
8A- 8aa-	.
8dnJ 8ddn	.
=29	=29
8E-L [8ee-	.
8e-' 8ee-]	.
8G	.
8e-J	.
8D-L	.
8B- 8gg	.
8F-X 8fff-X	.
8B-J 8gg	.
=30	=30
8CL [8aa-	.
8A-' 8aa-]	.
8E-	.
8A-J	.
8D-L	.
8B- 8gg	.
8F-X 8fff-X	.
8B-J 8gg	.
=31	=31
8CL	.
8A- 8gg	.
8E- 8bb-	.
8A-J 8aa-	.
8GGL	.
8G 8aan	.
8E- 8ccc	.
8GJ 8bb-	.
=32	=32
8AA-L	.
8A- 8bbn	.
8E- 8ddd-	.
8A-J 8ccc	.
8BB-XL	.
8B-X 8ccc	.
8E- 8eee-	.
8B-J 8ddd-	.
=33	=33
[8CL	f
8C] 8dddn	.
[8E- 8fff	.
8E-J_ 8eee-	.
8E-L_ 8ddd-X	.
8E-] 8ccc	.
[8A- 8bb-	.
8A-J] 8aa-	.
=34	=34
[8D-L 8gg	.
8D-] 8ff	.
[8F 8ee-	.
8FJ_ 8dd-	.
8FL_ 8cc	.
8F] 8b-	.
[8B- 8a-	.
8B-J] 8g	.
=35	=35
[8E-L 8f	p
8E-] 8e-	.
[8A- 8dn	.
8A-J_ 8e-	.
8A-L_ 8dn	.
8A-] 8e-	.
[8c 8dn	.
8cJ] 8e-	.
=36	=36
[8d-L 8dn	.
8d-] 8e-	.
[8B- 8f	.
8B-J] 8e-	.
[8GL 8dn	.
8G] 8e-	.
[8E- 8f	.
8E-J] 8e-	.
=37	=37
[8CCL	f
8CC] 8aa-	.
[8EE- 8fff	.
8EE-J_ 8eee-	.
8EE-L_ 8ddd-	.
8EE-] 8ccc	.
[8AA- 8bb-	.
8AA-J] 8aa-	.
=38	=38
[8DD-L 8gg	.
8DD-] 8ff	.
[8FF 8ee-	.
8FFJ_ 8dd-	.
8FFL_ 8cc	.
8FF] 8b-	.
[8BB- 8a-	.
8BB-J] 8g	.
=39	=39
[8EE-L 8f	p
8EE-] 8e-	.
[8AA- 8d-	.
8AA-J_ 8c	.
8AA-L_ 8B-	.
8AA-] 8A-	.
[8C 8G	.
8CJ] 8F	.
=40	=40
[8D-L 8E-	.
8D-] 8F	.
[8BB- 8G	.
8BB-J] 8A-	.
[8GGL 8B-	.
8GG] 8c	.
[8EE- 8d-	.
8EE-J] 8B-	.
=41	=41
4AA-' 4A-	p
4A-'	.
4dn [4cc-X	.
[8DnL [8F [8A- [8c-X 8cc-]	.
8D'J] 8F] 8A-] 8c-] 8b-	.
=42	=42
[4a-	.
4E-' 4A- 4cn 4a-]	.
[4g	.
[8E-L [8B- [8d- 8g]	.
8E-'J] 8B-] 8d-] 8ee-	.
=43	=43
4ee-	sf
4A-' 4c 4a-	.
4dn [4cc-X	.
[8DnL [8F [8A- [8c-X 8cc-]	.
8D'J] 8F] 8A-] 8c-] 8b-	.
=44	=44
[4a-	.
4E-' 4A- 4c 4a-]	.
[4g	.
[8E-L [8B- [8d- 8g]	.
8E-'J] 8B-] 8d-] 8ee-	.
=45	=45
4ee-	sf
4A-' 4c 4a-	.
4ddn [4ccc-X	.
[8dnL [8f [8a- [8cc-X 8ccc-]	.
8d'J] 8f] 8a-] 8cc-] 8bb-	.
=46	=46
[4aa-	.
4e-' 4a- 4cc 4aa-]	.
[4gg	.
[8e-L [8b- [8dd- 8gg]	.
8e-'J] 8b-] 8dd-] 8eee-	.
=47	=47
1A- 1B- 1d- 1e- 1g 1dd- 1gg 1eee-	ff
=	=
4A-' 4c 4e- 4a- 4cc 4ee- 4aa-	p
2r	.
=48	=48
4e-'	p
=49	=49
4a-'	.
4cc'	.
4ee-'	.
4aa-'	.
=50	=50
[4ccc^	.
[8A-L [8c [8e- 8ccc]	.
24A-L_ 24c_ 24e-_ 24bb-	.
24A-_ 24c_ 24e-_ 24aa-	.
24A-'JJ] 24c] 24e-] 24gg	.
4A-' 4c 4e- 4aa-	.
4A-' 4c 4e-	.
=51	=51
4dd-^ [4ddd-	sf
[8GL [8B- [8d- [8e- 8ddd-]	.
24GL_ 24B-_ 24d-_ 24e-_ 24ccc	.
24G_ 24B-_ 24d-_ 24e-_ 24bb-	.
24G'JJ] 24B-] 24d-] 24e-] 24aan	.
4G' 4B- 4d- 4e- 4bb-	.
4G' 4B- 4d- 4e-	.
=52	=52
4b-'	.
4dd-'	.
4gg'	.
4bb-'	.
=53	=53
4dd-^ [4ddd-	.
[8GL [8B- [8d- [8en 8ddd-]	.
24GL_ 24B-_ 24d-_ 24e_ 24ccc	.
24G_ 24B-_ 24d-_ 24e_ 24bb-	.
24GJJ] 24B-] 24d-] 24e] 24aan	.
4G' 4B- 4d- 4en 4bb-	.
4G 4B- 4d- 4en	.
=54	=54
4dd-^ [4ddd-	.
[8G-XL [8B- [8d- [8en 8ddd-]	.
24G-L_ 24B-_ 24d-_ 24e_ 24ccc	.
24G-_ 24B-_ 24d-_ 24e_ 24bb-	.
24G-JJ] 24B-] 24d-] 24e] 24aan	.
4G-X' 4B- 4d- 4en 4bb-	.
4G-X 4B- 4d- 4en	.
=55	=55
8FL [8aan	.
8f' 8aa]	.
8F	.
8fJ	.
8FL	.
8f	.
8F [8gg-X	.
8fJ 8gg-]	.
=56	=56
8FL [8ff	.
8f 8ff]	.
8F [8ee-	.
8fJ 8ee-]	.
8FL [8cc	.
8f 8cc]	.
8F [8an	.
8fJ 8a]	.
=57	=57
4F [4e- [4g-X	sf
[8FL 8e-_ 8g-]	.
8FJ] 8e-] 8f	.
8FL [8d- [8b-	.
8d-'] 8f 8b-]	.
8F [8gg-X	.
8fJ 8gg-]	.
=58	=58
8FL [8ff	.
8f 8ff]	.
8F [8ee-	.
8fJ 8ee-]	.
8FL [8cc	.
8f 8cc]	.
8F [8an	.
8fJ 8a]	.
=59	=59
4F [4e- [4g-X	sf
[8FL 8e-_ 8g-]	.
8FJ] 8e-] 8f	.
8FL [8d- [8b-	.
8d-'] 8f 8b-]	.
8F [8gg-X	.
8fJ 8gg-]	.
=60	=60
8FL [8ff	.
8f 8ff]	.
8F [8ee-	.
8fJ 8ee-]	.
8e-L [8cc	.
8f 8cc]	.
8e- [8an	.
8fJ 8a]	.
=61	=61
8d-L	.
8f 8an	.
8d- 8cc	.
8fJ 8b-	.
8cL	.
8f 8b-	.
8c 8dd-	.
8fJ 8cc	.
=62	=62
8B-L	.
8f 8cc	.
8B- 8ee-	.
8fJ 8dd-	.
8A-L	.
8f#X 8bn	.
8A- 8ddn	.
8f#XJ 8cc	.
=63	=63
8GL [8bn	fp
8g' 8b]	.
8G	.
8gJ	.
8GL	.
8g	.
8G [8aa-	.
8gJ 8aa-]	.
=64	=64
8GL [8gg	.
8g 8gg]	.
8G [8ff	.
8gJ 8ff]	.
8GL [8ddn	.
8g 8dd]	.
8G [8bn	.
8gJ 8b]	.
=65	=65
4G [4f [4a-	sf
[8GL 8f_ 8a-]	.
8GJ] 8f] 8g	.
8GL [8e- [8cc	.
8e-'] 8g 8cc]	.
8G [8aa-	.
8gJ 8aa-]	.
=66	=66
8GL [8gg	.
8g 8gg]	.
8G [8ff	.
8gJ 8ff]	.
8GL [8ddn	.
8g 8dd]	.
8G [8bn	.
8gJ 8b]	.
=67	=67
4G [4f [4a-	sf
[8GL 8f_ 8a-]	.
8GJ] 8f] 8g	.
4G' 4e- 4cc	.
[8A-L 8f	p
8A-J] 8dn	.
=68	=68
[8GL 8f	.
8G] 8dn	.
[8F 8f	.
8FJ] 8dn	.
[8DnL 8f	.
8D] 8dn	.
[8BBn 8f	.
8BBJ] 8dn	.
=69	=69
[8AA-L 8f	sf
8AA-_ 8dn	.
8AA-] 8f [8bn	.
8GGJ 8dn 8b]	.
[8CL 8e- [8cc	.
8C'] 8c 8cc]	.
[8G-X 8e-	.
8G-J] 8c	.
=70	=70
[8FL 8e-	.
8F] 8c	.
[8E- 8e-	.
8E-J] 8c	.
[8CL 8e-	.
8C] 8c	.
[8AAn 8e-	.
8AAJ] 8c	.
=71	=71
[8GG-XL 8e-	sf
8GG-_ 8c	.
8GG-] 8e- [8an	.
8FFJ 8c 8a]	.
[8BB-L 8d- [8b-	.
8BB-] 8B- 8b-]	.
[8F-X 8d-	.
8F-J] 8B-	.
=72	=72
[8E-L 8d-	.
8E-] 8B-	.
[8D- 8d-	.
8D-J] 8B-	.
[8BB-L 8d-	.
8BB-] 8B-	.
[8GGn 8d-	.
8GGJ] 8B-	.
=73	=73
[8FF-XL 8d-	.
8FF-] 8B-	.
[8EE- 8d-	.
8EE-J_ 8B-	.
8EE-L_ 8d- [8g	.
8EE-] 8B- 8g_	.
[8E- 8d- 8g_	.
8E-J_ 8B- 8g]	.
=74	=74
8E-L_ 8c	.
8E-] 8A-	.
[8C 8e-	.
8CJ_ 8A-	.
8CL_ 8e- [8a-	sf
8C] 8A- 8a-_	.
[8CC 8e- 8a-_	.
8CCJ_ 8A- 8a-]	.
=75	=75
8CCL_ 8d-	.
8CC] 8A-	.
[8DD- 8d-	.
8DD-J_ 8A-	.
8DD-L_ 8d- [8f	.
8DD-] 8A- 8f_	.
[8D- 8d- 8f_	.
8D-J_ 8A- 8f]	.
=76	=76
8D-L_ 8d-	.
8D-] 8G	.
[8BB- 8d-	.
8BB-J_ 8G	sf
8BB-L_ 8d- [8g	.
8BB-] 8G 8g_	.
[8BBB- 8d- 8g_	.
8BBB-J_ 8G 8g]	.
=77	=77
8BBB-L_ 8c	.
8BBB-] 8G	.
[8CC 8c	.
8CCJ_ 8G	.
8CCL_ 8c [8en	.
8CC] 8G 8e_	.
[8C 8c 8e_	.
8CJ_ 8G 8e]	.
=78	=78
8CL_ 8A-	f
8C] 8F	.
[8AA- 8c	.
8AA-J_ 8F	.
8AA-L_ 8c [8f	.
8AA-] 8F 8f_	.
[8AAA- 8c 8f_	.
8AAA-J] 8F 8f]	.
=79	=79
8d-L	.
8F	.
[8BBB- 8d-	.
8BBB-J_ 8F	.
8BBB-L_ 8d- [8f	.
8BBB-] 8F 8f_	.
[8BB- 8d- 8f_	.
8BB-J] 8F 8f]	.
=80	=80
8dnL	sf
8F	.
[8BBBn 8A- 8dn 8f	.
8BBBJ_ 8F	.
8BBBL_ 8A- 8dn 8f	.
8BBB] 8F	.
[8BBn 8A- 8dn 8f	.
8BBJ] 8F	.
=81	=81
8CCL [8G [8c [8en	.
8C' 8G] 8c] 8e]	.
8En	.
8CJ	.
8EnL	.
8C	.
8En [8cc	.
8CJ 8cc]	.
=82	=82
8FL [8a-	.
8C' 8a-]	.
8F	.
8CJ	.
8FL	.
8C	.
8A- [8ff	.
8CJ 8ff]	.
=83	=83
8GL [8een	.
8C' 8ee]	.
8G	.
8CJ	.
8GL	.
8C	.
8B- [8ccc	.
8CJ 8ccc]	.
=84	=84
8A-L [8ff	.
8C' 8ff]	.
8c	.
8CJ	.
8BnL [8ff [8fff	sf
8C 8ff_ 8fff_	.
8dn 8ff_ 8fff_	.
8CJ 8ff] 8fff]	.
=85	=85
8cL [8een [8eeen	.
8C 8ee] 8eee]	.
8En	.
8CJ	.
8EnL	.
8C	.
8Gt [8cc	.
8CtJ 8cc]	.
=86	=86
8FL [8a-	.
8C' 8a-]	.
8F [8a-	.
8C'J 8a-]	.
8FL	.
8C	.
8A-T [8ff	.
8CtJ 8ff]	.
=87	=87
8GL [8een	.
8C' 8ee]	.
8G [8ee	.
8C'J 8ee]	.
8GL	.
8C	.
8B-T [8ccc	.
8CtJ 8ccc]	.
=88	=88
8A-L [8ff	.
8C' 8ff]	.
8c [8ff	.
8C'J 8ff]	.
8BnL	.
8C	.
8dn [8ff [8fff	mf
8CJ 8ff] 8fff]	.
=89	=89
8cL [8een [8eeen	.
8C' 8ee] 8eee]	.
8c [8een [8eee	.
8C'J 8ee] 8eee]	.
8B-L	.
8C	.
8B- [8dd- [8ddd-	.
8CJ 8dd-] 8ddd-]	.
=90	=90
8A-L [8cc [8ccc	.
8C' 8cc] 8ccc]	.
8c [8cc [8ccc	.
8C'J 8cc] 8ccc]	.
8BnL	.
8C	.
8dn [8ff [8fff	.
8CJ 8ff] 8fff]	.
=91	=91
8cL [8een [8eeen	.
8C' 8ee] 8eee]	.
8c [8een [8eee	.
8C'J 8ee] 8eee]	.
8B-L	.
8C	.
8B- [8dd- [8ddd-	.
8CJ 8dd-] 8ddd-]	.
=92	=92
8A-L [8cc [8ccc	.
8C' 8cc] 8ccc]	.
8c [8cc [8ccc	.
8C'J 8cc] 8ccc]	.
8BnL	.
8C	.
8dn [8ff [8fff	.
8CJ 8ff] 8fff]	.
=93	=93
4c' 4een 4eeen	.
4c'	.
4c'	.
4c'	.
=94	=94
4c'	.
4c'	.
4c'	.
4c'	.
=95	=95
4c' 4d-	.
[8cL [8d-	.
24cL_ 24d-_ 24a-	.
24c_ 24d-_ 24g-X	.
24c'JJ] 24d-] 24f	.
4c' 4d- 4g-X	.
4c' 4d-	.
=96	=96
4B-' 4d-	.
[8B-L [8d-	.
24B-L_ 24d-_ 24eee-	.
24B-_ 24d-_ 24ddd-	.
24B-'JJ] 24d-] 24ccc	.
4B-' 4d- 4ddd-	.
4B-' 4d-	.
=97	=97
4B-' 4c	.
[8B-L [8c	.
24B-L_ 24c_ 24f	.
24B-_ 24c_ 24en	.
24B-'JJ] 24c] 24dn	.
4B-' 4c 4en	.
4B-' 4c	.
=98	=98
4A-' 4c	.
[8A-L [8c	.
24A-L_ 24c_ 24ddd-	.
24A-_ 24c_ 24ccc	.
24A-'JJ] 24c] 24bbn	.
4A-' 4c 4ccc	.
4A-' 4c	.
=99	=99
4A-' 4B-	.
[8A-L [8B-	.
24A-L_ 24B-_ 24e-	.
24A-_ 24B-_ 24dn	.
24A-'JJ] 24B-] 24c	.
4A-' 4B- 4dn	.
4A-' 4B-	.
=100	=100
4G' 4B- 4en	.
[8GL [8B- [8e	.
24GL_ 24B-_ 24e_ 24ccc	.
24G_ 24B-_ 24e_ 24bb-	.
24G'JJ] 24B-] 24e] 24aan	.
4G' 4B- 4en 4bb-	.
4G' 4B- 4en	.
=101	=101
4F' 4A- 4c 4f	f
4a-'	.
4cc'	.
4ff'	.
=102	=102
[4aa-^	sf
[8FL [8A- [8c 8aa-]	.
24FL_ 24A-_ 24c_ 24gg	.
24F_ 24A-_ 24c_ 24ff	.
24F'JJ] 24A-] 24c] 24een	.
4F' 4A- 4c 4ff	.
4F' 4A- 4c	.
=103	=103
4En' 4G 4B- 4c 4g	f
4cc'	.
4een'	.
4gg'	.
=104	=104
[4bb-^	sf
[8EnL [8G [8B- [8c 8bb-]	.
24EL_ 24G_ 24B-_ 24c_ 24aa-	.
24E_ 24G_ 24B-_ 24c_ 24gg	.
24E'JJ] 24G] 24B-] 24c] 24ff	.
4En' 4G 4B- 4c 4gg	.
4En' 4G 4B- 4c	.
=105	=105
[4.F [4.A- [4.c 4.cc 4.aa-	sf
24FLL_ 24A-_ 24c_ 24gg	.
24F_ 24A-_ 24c_ 24ff	.
24FJJ] 24A-] 24c] 24een	.
4ff'	.
4r	.
=106	=106
[4.G [4.B- [4.en 4.cc 4.bb-	sf
24GLL_ 24B-_ 24e_ 24aa-	.
24G_ 24B-_ 24e_ 24gg	.
24GJJ] 24B-] 24e] 24ff	.
4gg'	.
4r	.
=107	=107
4A-' 4c 4f [4cc [4ff [4aa- [4ccc	ff
4cc] 4ff] 4aa-] 4ccc]	.
[8B-L [8d- [8g 8bb-	.
8B-'] 8d-] 8g] 8aa-	.
8gg	.
8ffJ	.
=108	=108
4c' 4g 4een 4ff 4gg	p
4een	.
4r	.
4C'	.
=109	=109
4F'	.
4A-'	.
4c'	.
4f'	.
=110	=110
4.a-	.
24gLL	.
24f	.
24enJJ	.
4f'	.
4f'	.
=111	=111
[4.f [4.g-X 4.bb-	.
24fLL_ 24g-_ 24aa-	.
24f_ 24g-_ 24gg-X	.
24fJJ_ 24g-_ 24ff	.
4f'_ 4g-_ 4gg-X	.
4f'] 4g-] 4gg-	.
=112	=112
[4e- [4g-X [4gg-X	.
8e-L_ 8g-_ 8gg-_	.
24e-L_ 24g-_ 24dd- 24gg-_	.
24e-_ 24g-_ 24cc 24gg-_	.
24e-JJ_ 24g-_ 24bn 24gg-_	.
4e-'_ 4g-_ 4cc 4gg-_	.
4e-'] 4g-] 4cc 4gg-_	.
=113	=113
[4.e- [4.an [4.cc 4.gg-X]	.
24e-LL_ 24a_ 24cc_ 24gg-	.
24e-_ 24a_ 24cc_ 24ff	.
24e-JJ_ 24a_ 24cc_ 24een	.
4e-'_ 4a_ 4cc_ 4ff	.
4e-'] 4a] 4cc_ 4ff	.
=114	=114
[4.d- [4.f 4.cc] [4.ff	.
24d-LL_ 24f_ 24cc 24ff_	.
24d-_ 24f_ 24b- 24ff_	.
24d-JJ_ 24f_ 24an 24ff_	.
4d-'_ 4f_ 4b- 4ff_	.
4d-'] 4f] 4b- 4ff]	.
=115	=115
[4dn [4f [4bn	.
8dL_ 8f_ 8b_	.
24dL_ 24f_ 24b_ 24gg	.
24d_ 24f_ 24b_ 24ff	.
24dJJ_ 24f_ 24b_ 24een	.
4d_ 4f] 4b_ 4ff	.
4d_ 4en 4b_ 4gg	.
=116	=116
4dn_ 4f 4bn_ 4aa-	.
4d_ 4g 4b_ 4een	.
4d_ 4a- 4b_ 4ff	.
4d] 4f 4b]	.
=117	=117
[4c 4en 4cc	.
4c_ 4g 4een	.
4c_ 4f 4ff	.
4c_ 4en 4gg	.
=118	=118
4c_ 4f 4aa-	.
4c] 4b- 4een	.
[4d- 4a- 4ff	.
4d-] 4f 4bn	.
=119	=119
8CL [8en [8cc	.
8c' 8e] 8cc]	.
8C	.
8cJ	.
8CL	.
8c	.
8C [8dd-	.
8cJ 8dd-]	.
=120	=120
8CL [8cc	.
8c 8cc]	.
8C [8b-	.
8cJ 8b-]	.
8CL [8g	.
8c 8g]	.
8C [8en	.
8cJ 8e]	.
=121	=121
4C [4B- [4d-	sf
[8CL 8B-_ 8d-]	.
8CJ] 8B-] 8c	.
8CL [8A- [8f	.
8A-'] 8c 8f]	.
8C [8ddd-	.
8cJ 8ddd-]	.
=122	=122
8CL [8ccc	.
8c 8ccc]	.
8C [8bb-	.
8cJ 8bb-]	.
8CL [8gg	.
8c 8gg]	.
8C [8een	.
8cJ 8ee]	.
=123	=123
4C [4B- [4dd-	sf
[8CL 8B-_ 8dd-]	.
8CJ] 8B-] 8cc	.
8CL [8A- [8ff	.
8A-'] 8c 8ff]	.
8C [8ddd-	.
8cJ 8ddd-]	.
=124	=124
8CL [8ccc	.
8c 8ccc]	.
8C [8bb-	.
8cJ 8bb-]	.
8B-L [8gg	.
8c 8gg]	.
8B- [8een	.
8cJ 8ee]	.
=125	=125
8A-L	p
8f 8een	.
8c 8gg	.
8fJ 8ff	.
8GL	.
8en 8ff	.
8B- 8aa-	.
8enJ 8gg	.
=126	=126
8FL	.
8c 8gg	.
8A- 8bb-	.
8cJ 8aa-	.
8D-L	.
8Bn 8bbn	.
8F 8fff	.
8BnJ 8bbn	mf
=127	=127
8CL [8ccc	.
8c' 8ccc]	.
8En	.
8cJ	.
8D-L	.
8Bn 8bbn	.
8F 8fff	.
8BnJ 8bbn	.
=128	=128
8CL [8ccc	.
8c' 8ccc]	.
8En	.
8cJ	.
8BB-L	.
8G 8een	.
8D- 8ddd-	.
8GJ 8een	.
=129	=129
8AA-L [8ff	.
8F' 8ff]	.
8C	.
8FJ	.
8BB-L	.
8G 8een	.
8D- 8ddd-	.
8GJ 8een	.
=130	=130
8AA-L	.
8F 8een	.
8C 8gg	.
8FJ 8ff	.
8EEnL	.
8En 8ff	.
8C 8aa-	.
8EnJ 8gg	.
=131	=131
8FFL	.
8F 8gg	.
8C 8bb-	.
8FJ 8aa-	.
8GGL	.
8G 8aan	.
8C 8ccc	.
8GJ 8bb-	.
=132	=132
[8AA-L	ff
8AA-] 8ccc	.
[8C 8fff	.
8CJ_ 8eee-	.
8CL_ 8ddd-	.
8C] 8ccc	.
[8F 8bb-	.
8FJ] 8aa-	.
=133	=133
[8BB-L 8gg	.
8BB-] 8ff	.
[8D- 8ee-	.
8D-J_ 8dd-	.
8D-L_ 8cc	.
8D-] 8b-	.
[8G 8a-	.
8GJ] 8g	.
=134	=134
[8CL 8f	.
8C] 8en	.
[8F 8d-	.
8FJ_ 8c	.
8FL_ 8Bn	.
8F] 8c	.
[8A- 8Bn	.
8A-J] 8c	.
=135	=135
[8B-L 8Bn	pp
8B-] 8c	.
[8G 8d-	.
8GJ] 8c	.
[8EnL 8Bn	.
8E] 8c	.
[8BB-X 8d-	.
8BB-J] 8c	.
=136	=136
[8AA-L	ff
8AA-] 8ccc	.
[8C 8fff	.
8CJ_ 8eee-	.
8CL_ 8ddd-	.
8C] 8ccc	.
[8F 8bb-	.
8FJ] 8aa-	.
=137	=137
[8BB-L 8gg	.
8BB-] 8ff	.
[8D- 8ee-	.
8D-J_ 8dd-	.
8D-L_ 8cc	.
8D-] 8b-	.
[8G 8a-	.
8GJ] 8g	.
=138	=138
[8CL 8f	.
8C] 8en	.
[8F 8d-	.
8FJ_ 8c	.
8FL_ 8Bn	.
8F] 8c	.
[8A- 8d-	.
8A-J] 8c	.
=139	=139
8BnL	p
8c	.
[8CC 8d-	.
8CC'J] 8c	.
[8CCL 8c	.
8CC'] 8B-X	.
[8CC 8A-	.
8CC'J] 8G	.
=140	=140
4FF' 4F	.
4F'	.
[4a-	.
[8D-L [8F [8Bn 8a-]	.
8D-'J] 8F] 8B] 8g	.
=141	=141
[4f	.
4C' 4F 4A- 4c 4f]	.
[4en	.
[8CL [8G [8B- 8e]	.
8C'J] 8G] 8B-] 8cc	.
=142	=142
4cc	sf
4F' 4A- 4f	.
[4a-	.
[8D-L [8F [8A- [8Bn 8a-]	.
8D-'J] 8F] 8A-] 8B] 8g	.
=143	=143
[4f	.
4C' 4F 4A- 4c 4f]	.
[4en	.
[8CL [8G [8B- 8e]	.
8C'J] 8G] 8B-] 8cc	.
=144	=144
4cc	.
4F' 4A- 4f	.
[4aa-	.
[8d-L [8f [8a- [8bn 8aa-]	.
8d-'J] 8f] 8a-] 8b] 8gg	.
=145	=145
[4ff	.
4c' 4f 4a- 4cc 4ff]	.
[4een	.
[8B-L [8c [8g 8ee]	.
8B-'J] 8c] 8g] 8ccc	.
=146	=146
1An 1c 1f 1cc 1ee- 1ccc	ff
=147	=147
4B-' 4d- 4f 4b- 4dd- 4ff	.
2r	.
8r	.
8B- 8d- 8f 8b- 8dd- 8bb-	.
=148	=148
1G 1B- 1e- 1b- 1dd- 1bb-	ff
=149	=149
4A-' 4c 4e- 4a- 4cc 4ee-	.
2r	.
4F' 4d- 4a- 4cc 4aa-	sf
=150	=150
4G' 4d- 4g 4b- 4dd-	.
4En' 4c 4g 4b- 4gg	sf
4F' 4c 4f 4a- 4cc	.
4D-' 4d- 4f 4a- 4ff	sf
=151	=151
4BB-' 4D- 4G 4B- 4f 4g 4dd- 4ff	ff
4r	.
4C' 4En 4G 4c 4en 4g 4b- 4cc 4een	.
4r	.
=152	=152
4FF'; 4AA- 4C 4F 4f 4a- 4cc 4ff	.
2r	.
==	==
*-	*-
